Dominus_Funeral/22/apps/libreoffice-main.svg

<svg xmlns="http://www.w3.org/2000/svg" width="24" height="24" viewBox="0 0 6.35 6.35"><path d="M.6.27a.34.34 0 0 0-.35.34v5.11c0 .2.15.34.34.34h5.17c.19 0 .34-.15.34-.34V.62a.34.34 0 0 0-.34-.35H.59zm.23.36h2.34L5.74 3.2V5.5c0 .12-.1.22-.22.22H.83a.22.22 0 0 1-.22-.22V.85c0-.12.1-.22.22-.22z" fill="#1a1a1a" fill-rule="evenodd"/></svg>

<?xml version="1.0" encoding="UTF-8" standalone="no"?>
<svg
   xmlns:dc="http://purl.org/dc/elements/1.1/"
   xmlns:cc="http://creativecommons.org/ns#"
   xmlns:rdf="http://www.w3.org/1999/02/22-rdf-syntax-ns#"
   xmlns:svg="http://www.w3.org/2000/svg"
   xmlns="http://www.w3.org/2000/svg"
   xmlns:sodipodi="http://sodipodi.sourceforge.net/DTD/sodipodi-0.dtd"
   xmlns:inkscape="http://www.inkscape.org/namespaces/inkscape"
   width="24"
   height="24"
   viewBox="0 0 6.35 6.35"
   version="1.1"
   id="svg4"
   sodipodi:docname="libreoffice-main.svg"
   inkscape:version="0.92.4 (5da689c313, 2019-01-14)">
  <metadata
     id="metadata10">
    <rdf:RDF>
      <cc:Work
         rdf:about="">
        <dc:format>image/svg+xml</dc:format>
        <dc:type
           rdf:resource="http://purl.org/dc/dcmitype/StillImage" />
        <dc:title></dc:title>
      </cc:Work>
    </rdf:RDF>
  </metadata>
  <defs
     id="defs8" />
  <sodipodi:namedview
     pagecolor="#ffffff"
     bordercolor="#666666"
     borderopacity="1"
     objecttolerance="10"
     gridtolerance="10"
     guidetolerance="10"
     inkscape:pageopacity="0"
     inkscape:pageshadow="2"
     inkscape:window-width="1138"
     inkscape:window-height="480"
     id="namedview6"
     showgrid="false"
     inkscape:zoom="9.8333333"
     inkscape:cx="1.0677966"
     inkscape:cy="12"
     inkscape:window-x="0"
     inkscape:window-y="25"
     inkscape:window-maximized="0"
     inkscape:current-layer="svg4" />
  <path
     d="M 0.6,0.27 A 0.34,0.34 0 0 0 0.25,0.61 v 5.11 c 0,0.2 0.15,0.34 0.34,0.34 H 5.76 C 5.95,6.06 6.1,5.91 6.1,5.72 V 0.62 A 0.34,0.34 0 0 0 5.76,0.27 H 0.59 Z M 0.83,0.63 H 3.17 L 5.74,3.2 v 2.3 c 0,0.12 -0.1,0.22 -0.22,0.22 H 0.83 A 0.22,0.22 0 0 1 0.61,5.5 V 0.85 c 0,-0.12 0.1,-0.22 0.22,-0.22 z"
     id="path2"
     inkscape:connector-curvature="0"
     style="fill:#1a1a1a;fill-rule:evenodd" />
</svg>
